X:8031
T:Joan O'Neills #2
M:2/4
R:Polka
L:1/8
Z:added by Alf warnock@magma.ca
K:Bm
A/2|"Bm"B>A B>A|F/2G/2A "D"D>A|"Bm"B>A B>A|B/2c/2d "A"ed|\
"Bm"B>A B>A|F/2G/2A "D"DE|FD AF|"Em"E2 E3/2:|
"Em"B/2c/2d e>f|ed B>A|B/2c/2d e>f|ed B>c|\
"D"d>e dB|AF DE|FD AF|"Em"E2 E2:|


